X: 6
T: Dever The Dancer
R: slip jig
M: 9/8
L: 1/8
K: Emin
|BEE BEF G3|BEE BAG FGA|BEE BEF G2A|Bcd ABG FED:|
|ded cAF G2A|{B}ded def gfe|g/f/ed cAF G2A|Bcd ABG FED:|


Tune 148	Setting 12773

